!!!COM: Scriabin, Alexander
!!!OTL: Movement 2
!!!OPR: Sonata No. 2
!!!OPS: 23
!!!ONM: 2
!!!ODT: 1897
!!!AGN: Sonata movement
**kern	**kern
*staff2	*staff1
*clefF4	*clefG2
*k[b-e-a-]	*k[b-e-a-]
*E-:	*E-:
*M4/8	*M4/8
16EE-LL 16E-	8r
16BBB-J 16BB-	.
=1	=1
*	*^
8GG 8GJ	4.B- 4.b-	2e-
16EE-LL 16E-	.	.
16BBB-J 16BB-	.	.
8GGJ 8G	.	.
16GG-XLL 16G-X	8B- 8b-	.
[16EE-J [16E-	.	.
=2	=2	=2
8qEE-/] 8qE-]	.	.
[8C-XJ [8G-X [8c-X	8.B-L 8.b-	4.e-
4C-] 4G-] 4c-]	.	.
.	16G-XJk 16g-X	.
.	8G-L 8g-	.
16EE-LL 16E-	8GnJ 8gn	8e-
16BBB-J 16BB-	.	.
=3	=3	=3
8GGnJ 8Gn	4.B- 4.b-	4.e-
16EE-LL 16E-	.	.
16BBB-J 16BB-	.	.
8GGJ 8G	.	.
16GG-XLL 16G-X	8B- 8b-	8e--
[16EE--J [16E--	.	.
=4	=4	=4
8qEE--/] 8qE--]	.	.
[8C-XJ [8G-X [8c-X	8.B-L 8.b-	4.e--
4C-] 4G-] 4c-]	.	.
.	16G-XJk 16g-X	.
.	8G-L 8g-	.
16DD-XLL 16D-X	8B-J 8b-	8g-
16BBB-J 16BB-	.	.
=5	=5	=5
8GG-XJ 8G-X	16.d-XLL 16.dd-X	8b-
.	32e-XJk 32ee-X	.
16DD-XLL 16D-X	8e-J 8b- 8dd- 8ee-	8rc
16BBB-J 16BB-	.	.
8BB-J 8B-	8fL 8b- 8dd- 8ff	4rc
16EE-LL 16E-	8g-XJ 8b- 8ee- 8gg-X	.
[16BBB-J [16BB-	.	.
*	*v	*v
=6	=6
8qBBB-/] 8qBB-]	.
[8G-XJ [8e- [8g-X	8.b-L 8.ee- 8.bb-
8G-L] 8e-] 8g-]	.
.	16e-Jk 16ee-
8G-J 8B- 8g-	8e- 8b- 8ee-
16GG-XLL 16G-	8r
16AAA-J 16AA-	.
=7	=7
[8G-XJ [8c-X [8g-X	8.cc-XL 8.ee- 8.ccc-X
8G-L] 8c-] 8g-]	.
.	16e-Jk 16ee-
8G-J 8c- 8g-	8e- 8cc- 8ee-
16FFLL 16F	8r
16BBB-J 16BB-	.
=8	=8
8.FJ 8.B- 8.f	8.dnL 8.b- 8.ddn
16D 16F 16d	16B-Jk 16f 16b-
8D 8F 8d	8B- 8f 8b-
16BBB-LL 16BB-	8r
16FFFJ 16FF	.
=9	=9
*	*clefF4
*	*^
8DDJ 8D	4.F 4.f	2B-
16BBB-LL 16BB-	.	.
16FFFJ 16FF	.	.
8DDJ 8D	.	.
16DD-XLL 16D-X	8F 8f	.
[16BBB-J [16BB-	.	.
=10	=10	=10
8qBBB-/] 8qBB-]	.	.
[8GG-XJ [8D-X [8G-X	8.FL 8.f	4.B-
4GG-] 4D-] 4G-]	.	.
.	16D-XJk 16d-X	.
.	8D-L 8d-	.
16BBB-LL 16BB-	8DnJ 8dn	8B-
16FFFJ 16FF	.	.
=11	=11	=11
8DDJ 8D	4.F 4.f	4.B-
16BBB-LL 16BB-	.	.
16FFFJ 16FF	.	.
8DDJ 8D	.	.
16DD-XLL 16D-X	8F 8f	8B--
[16BBB--J [16BB--	.	.
=12	=12	=12
8qBBB--/] 8qBB--]	.	.
[8GG-XJ [8D-X [8G-X	8.FL 8.f	4.B--
4GG-] 4D-] 4G-]	.	.
.	16D-XJk 16d-X	.
.	8D-L 8d-	.
16AAA-LL 16AA-	8FJ 8f	8d-
16FFFJ 16FF	.	.
*	*clefG2	*
=13	=13	=13
8DD-XJ 8D-X	16.A-LL 16.a-	8f
.	32B-XJk 32b-X	.
16AAA-LL 16AA-	8B-J 8f 8a- 8b-	8rc
16FFFJ 16FF	.	.
8FFJ 8F	8cL 8f 8a- 8cc	4rc
16BBB-LL 16BB-	8d-XJ 8f 8b- 8dd-X	.
16FFFJ 16FF	.	.
*	*v	*v
=14	=14
[8D-XJ [8B- [8d-X	8.fL 8.b- 8.ff
8D-L] 8B-] 8d-]	.
.	16B-Jk 16b-
8D-J 8F 8d-	8B- 8f 8b-
16BBB-LL 16BB-	8r
16EEE-J 16EE-	.
=15	=15
[8D-XJ [8G-X [8d-X	8.g-XL 8.b- 8.gg-X
8D-L] 8G-] 8d-]	.
.	16B-Jk 16b-
8D-J 8G- 8d-	8B- 8g- 8b-
16BBB-LL 16BB-	8r
16BBBB-J 16BBB-	.
=16	=16
[8DnJ [8B- [8dn	8.fL 8.b- 8.ff
8DL] 8B-] 8d]	.
.	16B-Jk 16b-
8DJ 8B- 8d	8B- 8f 8b-
8r	16fLL
.	16FJJ
=17	=17
16.FFFLL 16.FF	4r
32GGGJk 32GG	.
8GGGJ 8GG	.
8AAAnL 8AAn	8r
*	*clefF4
8BBB-J 8BB-	16FLL
.	16FFJJ
=18	=18
*	*clefG2
*	*^
4.DD-X 4.D-X	16.FLL 16.f	8B-L
.	32GJk 32g	.
.	8GJ 8g	8fJ
.	8AnL 8f 8an	4rc
16GLL	8B-J 8f 8b-	.
16D-JJ	.	.
=19	=19	=19
8r	8.d-XL 8.dd-X	4f
8CC 8C	.	.
.	16FJk 16f	.
8AA-XL 8A-X	4F 4f	4d-
8GGJ 8G	.	.
*	*v	*v
=20	=20
8FF#XL 8F#X	8.cL 8.en 8.cc
8GGJ 8G	.
.	16EnJk 16e
8CC 8C	8E 8c 8e
8r	16ccLL
.	16cJJ
=21	=21
16.CCLL 16.C	4r
32DDJk 32D	.
8DDJ 8D	.
8EEnL 8En	8r
*	*clefF4
8FFnJ 8Fn	16cLL
.	16CJJ
*	*clefG2
=22	=22
*	*^
4.AA- 4.A-	16.cLL 16.cc	8fL
.	32dJk 32dd	.
.	8dJ 8dd	8ccJ
.	8enL 8cc 8een	4rc
16dLL	8fJ 8cc 8ff	.
16A-JJ	.	.
*	*v	*v
=23	=23
8r	8.a-L 8.cc 8.aa-
8GG 8G	.
.	16cJk 16cc
8E-XL 8e-X	4c 4a- 4cc
8DJ 8d	.
=24	=24
8C#X 8c#X	8.gL 8.bn 8.gg
4D 4d	.
.	16BnJk 16b
.	8BL 8g 8b
8D-X 8d-X	8e-J 8g 8ee-
=25	=25
*	*^
8CL 8c	16.e-LL 16.ee-	8a-L 8ee-
.	32fJk 32ff	.
8AA-J 8A-	8fJ 8ff	8ccJ 8ee-
8EE-L 8E-	8gL 8cc 8ee- 8gg	4rc
8CCJ 8C	8a-J 8cc 8ff 8aa-	.
=26	=26	=26
8r	4aa-	8.ee-L 8.eee-
8CC 8C	.	.
.	.	16a-Jk 16aa-
8E-L 8A- 8e-	4ee-	4a- 4aa-
8CCJ 8C	.	.
=27	=27	=27
8CL 8c	16.e-LL 16.ee-	8a-L 8ee-
.	32fJk 32ff	.
8AA-J 8A-	8fJ 8ff	8ccJ 8ee-
8EE-L 8E-	8gL 8cc 8ee- 8gg	4rc
8CCJ 8C	8a-J 8cc 8ff 8aa-	.
=28	=28	=28
8r	4aa-	8.ff-XL 8.fff-X
8CC 8C	.	.
.	.	16a-Jk 16aa-
8DL 8A- 8d	4dd	4a- 4aa-
8BBBnJ 8BBn	.	.
=29	=29	=29
8r	4aa-	8.ffnL 8.fffn
8CC 8C	.	.
.	.	16a-Jk 16aa-
8DL 8A- 8d	4dd	4a- 4aa-
8CC-XJ 8C-X	.	.
=30	=30	=30
8r	4dd	8.cc-XL 8.ccc-X
8BBB- 8BB-	.	.
.	.	16b-Jk 16bb-
8F 8A- 8d 8f	4dd	4b- 4bb-
16EE-LL 16E-	.	.
16BBB-J 16BB-	.	.
=31	=31	=31
8GGJ 8G	4.B- 4.b-	2e-
16EE-LL 16E-	.	.
16BBB-J 16BB-	.	.
8GGJ 8G	.	.
16GG-XLL 16G-X	8B- 8b-	.
[16EE-J [16E-	.	.
=32	=32	=32
8qEE-/] 8qE-]	.	.
[8C-XJ [8G-X [8c-X	8.B-L 8.b-	4.e-
4C-] 4G-] 4c-]	.	.
.	16G-XJk 16g-X	.
.	8G-L 8g-	.
16EE-LL 16E-	8GnJ 8gn	8e-
16BBB-J 16BB-	.	.
=33	=33	=33
8GGnJ 8Gn	4.B- 4.b-	4.e-
16EE-LL 16E-	.	.
16BBB-J 16BB-	.	.
8GGJ 8G	.	.
16GG-XLL 16G-X	8B- 8b-	8e--
[16EE--J [16E--	.	.
=34	=34	=34
8qEE--/] 8qE--]	.	.
[8C-XJ [8G-X [8c-X	8.B-L 8.b-	4.e--
4C-] 4G-] 4c-]	.	.
.	16G-XJk 16g-X	.
.	8G-L 8g-	.
16DD-XLL 16D-X	8B-J 8b-	8g-
16BBB-J 16BB-	.	.
=35	=35	=35
8GG-XJ 8G-X	16.d-XLL 16.dd-X	8b-
.	32e-XJk 32ee-X	.
16DD-XLL 16D-X	8e-J 8b- 8dd- 8ee-	8rc
16BBB-J 16BB-	.	.
8BB-J 8B-	8fL 8b- 8dd- 8ff	4rc
16EE-LL 16E-	8g-XJ 8b- 8ee- 8gg-X	.
16BBB-J 16BB-	.	.
=36	=36	=36
[8G-XJ [8e- [8g-X	4ee-	8.b-L 8.bb-
8G-L] 8e-] 8g-]	.	.
.	.	16e-Jk 16ee-
8G-J 8B- 8g-	4b-	4e- 4ee-
16EE-LL 16E-	.	.
16BBB-J 16BB-	.	.
=37	=37	=37
[8G-XJ [8e- [8g-X	4ee-	8.cc-XL 8.ccc-X
8G-L] 8e-] 8g-]	.	.
.	.	16e-Jk 16ee-
8G-J 8c-X 8g-	4e- 4cc- 4ee-	4rc
16EE-LL 16E-	.	.
16AAAnJ 16AAn	.	.
=38	=38	=38
[8G-XJ [8e- [8g-X	4ee-	8.cc-XL 8.ccc-X
8G-L] 8e-] 8g-]	.	.
.	.	16e-Jk 16ee-
8G-J 8c-X 8g-	4e- 4cc- 4ee-	4rc
16EE-LL 16E-	.	.
16AAA-XJ 16AA-X	.	.
=39	=39	=39
8EE-J 8E-	16.c-XLL 16.cc-X	8e-L
.	32G-XJk 32g-X	.
16AA-LL 16A-	8G-J 8g-	8c-J
16EE-J 16E-	.	.
8AA-J 8A-	16.c-LL 16.cc-	8fL
.	32FJk 32f	.
16DD-XLL 16D-X	8FJ 8f	8c-J
16AAA-J 16AA-	.	.
=40	=40	=40
8DD-XJ 8D-X	16.B-LL 16.b-	8fL
.	32FJk 32f	.
16GG-XLL 16G-X	8FJ 8f	8B-J
16DD-J 16D-	.	.
8GG-J 8G-	16.B-LL 16.b-	8e-L
.	32E-Jk 32e-	.
16CC-XLL 16C-X	8E-J 8e-	8B-J
16GGG-XJ 16GG-	.	.
=41	=41	=41
8CC-XJ 8C-X	16.A-LL 16.a-	8e-L
.	32E-Jk 32e-	.
16FFLL 16F	8E-J 8e-	8A-J
16CC-J 16C-	.	.
8FF#XJ 8F#X	16.AnLL 16.an	8e-L
.	32E-Jk 32e-	.
16FF#LL 16F#	8E-J 8e-	8AJ
16BBB-J 16BB-	.	.
=42	=42	=42
[8GGJ [8G	16.B-LL 16.b-	8e-
.	32B-Jk	.
16GGLL] 16G]	8B-J	8rc
16BBB-J 16BB-	.	.
8FFnJ 8Fn	16.B-LL 16.b-	8d
.	32B-Jk	.
16BBB-LL 16BB-	8B-J	8rc
16EEE-J 16EE-	.	.
=43	=43	=43
8GGJ 8G	4.B- 4.b-	2e-
16BBB-LL 16BB-	.	.
16EEE-J 16EE-	.	.
8GGJ 8G	.	.
16GG-XLL 16G-X	8B- 8b-	.
[16EE-J [16E-	.	.
=44	=44	=44
8qEE-/] 8qE-]	.	.
[8C-XJ [8G-X [8c-X	8.B-L 8.b-	4.e-
4C-] 4G-] 4c-]	.	.
.	16G-XJk 16g-X	.
.	8G-L 8g-	.
16BBB-LL 16BB-	8GnJ 8gn	8e-
16EEE-J 16EE-	.	.
=45	=45	=45
8GGnJ 8Gn	4.B- 4.b-	4.e-
16BBB-LL 16BB-	.	.
16EEE-J 16EE-	.	.
8GGJ 8G	.	.
16GG-XLL 16G-X	8B- 8b-	8e-
[16EE-J [16E-	.	.
=46	=46	=46
8qEE-/] 8qE-]	.	.
*^	*	*
[8C-XJ [8G-X [8c-X	8rEE	8.b-L	4.e-
4C-] 4G-] 4c-]	4rEE	.	.
.	.	16g-XJk	.
.	.	8g-L	.
16BB-LL	[8BB-	8gnJ	8rc
[16EE-JJ	.	.	.
=47	=47	=47	=47
4.EE-] 4.G	4.BB-]	8.b-L	2B-
.	.	16e-Jk	.
.	.	4e-	.
16BB-LL	[8BB-	.	.
[16EE-JJ	.	.	.
=48	=48	=48	=48
4.EE-] 4.G	4.BB-]	8.b-L	2B-
.	.	16e-Jk	.
.	.	4e-	.
16BB-LL	[8BB-	.	.
[16EE-JJ	.	.	.
=49	=49	=49	=49
4.EE-] 4.F	4.BB-]	8.b-L	2A-
.	.	16dJk	.
.	.	4d	.
16BB-LL	[8BB-	.	.
[16EE-JJ	.	.	.
=50	=50	=50	=50
4.EE-] 4.A-	4.BB-]	8.b-L	4.d
.	.	16fJk	.
.	.	8f	.
16B-LL	8rEE	8d-X 8g	8rc
16E-JJ	.	.	.
*v	*v	*	*
*	*v	*v
=51||	=51||
*k[b-e-a-d-]	*k[b-e-a-d-]
*	*^
*	*	*^
8fL	4ee-	8.rc	8a-\L
24e-L	.	.	8g\J
24f	.	.	.
.	.	16cc	.
24e-JJ	.	.	.
8d-L	[4ff	8.b-L	[4a-\
8cJ	.	.	.
.	.	16ccJk	.
=52	=52	=52	=52
8B-L	4ff]	8ccL	4a-\]
8f	.	8dd-J	.
8b-J	8raa	4rc	4r
*clefG2	*	*	*
24d-LL	[8b-L 8ff 8aa-	.	.
24e-	.	.	.
24d-J	.	.	.
*	*	*v	*v
=53	=53	=53
8e-J	8b-J] 8ee- 8gg	8rc
8gL	8ee-L	24b-LL
.	.	24cc
.	.	24b-J
8a-J	8ccJ	8ccJ
8fL	24dd-LL/	8a-L\
.	24ee-	.
.	24dd-J	.
=54	=54	=54
*^	*	*
8e-J	8rc	8b-J	8gJ
*clefF4	*	*	*
4B-	8FL	8dd-L	8a-L
.	8E-J	8b-J	8gJ
16B-LL	8rEE	8raa	8d- 8g
16E-JJ	.	.	.
*v	*v	*	*
=55	=55	=55
*	*	*^
8fL	4ee-	8.rc	8a-\L
24e-L	.	.	8g\J
24f	.	.	.
.	.	16cc	.
24e-JJ	.	.	.
8d-L	[4ff	8.b-L	[4a-\
8cJ	.	.	.
.	.	16ccJk	.
=56	=56	=56	=56
8B-L	4ff]	8ccL	4a-\]
8f	.	8dd-J	.
8b-J	8raa	4rc	4r
24B-LL	8a-L 8dd- 8ff	.	.
24c	.	.	.
24B-J	.	.	.
*	*	*v	*v
=57	=57	=57
8cJ	8gJ 8cc 8ee-	4rc
24e-LL	8gL 8cc	.
24f	.	.
24e-J	.	.
8fJ	8a-J	8rc
8d-L	24b-LL	8fL
.	24cc	.
.	24b-J	.
=58	=58	=58
*^	*	*
8cJ	8rEE	8gJ	8enJ\
4G	8D-L	8b-L	8fL
.	8CJ	8gJ	8eJ
16GLL	8rEE	8raa	8B- 8e
16CJJ	.	.	.
*v	*v	*	*
=59	=59	=59
*	*	*^
8d-L	4cc	8rc	8f\L
24cL	.	24a-LL	8en\J
24d-	.	24b-	.
24cJJ	.	24a-JJ	.
8cL	4dd-	8.a-L	8.e\L
8B-J	.	.	.
.	.	16gJk	16e\Jk
=60	=60	=60	=60
8B-L	4ddn	8ddL	4f\
8A-	.	8ccJ	.
8GJ	4een	8b-	8en\
16cLL	.	8an	8e-X\
16FJJ	.	.	.
=61	=61	=61	=61
8g-XL	4ff	8rc	8b-\L
24fL	.	24dd-XLL	8an\J
24g-	.	24ee-	.
24fJJ	.	24dd-JJ	.
8fL	4gg-X	8.dd-L	8.a\L
8e-J	.	.	.
.	.	16ccJk	16a\Jk
=62	=62	=62	=62
8e-L	4ggn	8ggL	4b-\
24d-L	.	24ffL	.
24e-	.	24gg	.
24d-J	.	24ffJJ	.
8cJ	4aan	8ee-	8an\
8c	.	8ee-	8a\
=63	=63	=63	=63
*^	*	*	*
4f	8cL	8.aanL	4ee-	4an\
.	8c-XJ	.	.	.
.	.	16ffJk	.	.
4f	8c-L	4ff	4ee-	8a\L
.	8B-J	.	.	8a-X\J
=64	=64	=64	=64	=64
8fL	2B-	4bb-	8ee-L	2a-\
8fJ	.	.	24ee-L	.
.	.	.	24ff	.
.	.	.	24ee-JJ	.
8b-L	.	4ff	4ddn	.
8B-J	.	.	.	.
=65	=65	=65	=65	=65
4e-	8B-L	8.ggL	4dd-X	4g\
.	8B--J	.	.	.
.	.	16ee-Jk	.	.
4e-	8B--L	4ee-	4dd-	8g\L
.	8A-J	.	.	8g-X\J
=66	=66	=66	=66	=66
8e-L	2A-	4aa-	8dd-L	2g-X\
8e-J	.	.	24dd-L	.
.	.	.	24ee-	.
.	.	.	24dd-JJ	.
8a-	.	8ee-	8cc	.
8d-	.	8ff	8a- 8dd-	.
*v	*v	*	*	*
*	*	*v	*v
=67	=67	=67
8d-L	8.ffL	8a-L 8dd-
24cL	.	8fJ 8a-
24d-	.	.
.	16dd-Jk	.
24cJJ	.	.
8B-L	8dd-L	8fL 8a-
8cJ	8ee-J	8e-J 8g
=68	=68	=68
8cL	8.ee-L	8gL
8fJ	.	8a-J
.	16ccJk	.
8fL	8ccL	8a-L
8d-J	8ffJ	8a-J 8dd-
=69	=69	=69
8d-L	8.ffL	8a-L 8dd-
24cL	.	8fJ 8a-
24d-	.	.
.	16dd-Jk	.
24cJJ	.	.
8B-L	8dd-L	8fL 8a-
8cJ	8ee-J	8e-J 8g
=70	=70	=70
8cL	8.ee-L	8gL
8fJ	.	8a-J
.	16ccJk	.
8fL	8ccL	8a-L
8cJ	8ee-J	8gJ
*	*v	*v
=71	=71
8cL	8gL 8ee-
8fJ	8a-J 8cc
8fL	8a-L 8cc
8B-J	8fJ 8a- 8dd-
=72	=72
*	*^
8B-L	8fL 8a- 8dd-	4rc
8e-J	8gJ 8b-	.
8e-	8g 8b-	8rc
16B-LL	8raa	8d- 8g
16E-JJ	.	.
=73	=73	=73
*	*	*^
8fL	4ee-	8.rc	8a-\L
24e-L	.	.	8g\J
24f	.	.	.
.	.	16cc	.
24e-JJ	.	.	.
8d-L	[4ff	8.b-L	[4a-\
8cJ	.	.	.
.	.	16ccJk	.
=74	=74	=74	=74
8B-L	4ff]	8ccL	4a-\]
8f	.	8dd-J	.
8b-J	8raa	4rc	4r
*clefG2	*	*	*
24d-LL	[8b-L 8ff 8aa-	.	.
24e-	.	.	.
24d-J	.	.	.
*	*	*v	*v
=75	=75	=75
8e-JH	8b-J] 8ee- 8gg	8rc
8gL	8ee-L	24b-LL
.	.	24cc
.	.	24b-J
8a-J	8ccJ	8ccJ
8fL	24dd-LL	8a-L
.	24ee-	.
.	24dd-J	.
=76	=76	=76
*^	*	*
8e-J	8rc	8b-J/	8gJ\
*clefF4	*	*	*
4B-	8FL	8dd-L	8a-L
.	8E-J	8b-J	8gJ
16e-LL	8rEE	8raa	8g-X 8cc
16A-JJ	.	.	.
*v	*v	*	*
*	*v	*v
*clefG2	*
=77	=77
*	*^
*	*	*^
8b-L	4aa-	8.rc	8dd-\L
24a-L	.	.	8cc\J
24b-	.	.	.
.	.	16ff	.
24a-JJ	.	.	.
8g-XL	[4bb-	8.ee-L	[4dd-\
8fJ	.	.	.
.	.	16ffJk	.
=78	=78	=78	=78
8e-L	4bb-]	8ffL	4dd-\]
8b-J	.	8gg-XJ	.
8ee-	8raa	4rc	4r
24e-LL	8dd-L 8gg- 8bb-	.	.
24f	.	.	.
24e-J	.	.	.
*	*v	*v	*v
=79	=79
8fJ	8ccJ 8ff 8aa-
24a-LL	8ccL 8ff
24b-	.
24a-J	.
8b-J	8dd-J
24d-LL	8b-L 8ff 8aa-
24e-	.
24d-J	.
=80	=80
8e-J	8b-J 8ee- 8gg-X
24g-XLL	8b-L 8ee-
24a-	.
24g-J	.
8a-J	8ccJ
24cLL	8a- 8ee- 8gg-
24d-	.
24cJ	.
=81	=81
8d-J	8a-L 8dd- 8ff
24c-XLL	8a-J 8ee- 8ff
24d-	.
24c-J	.
8fJ	8a-L 8ee- 8ff
24B-LL	8a-J 8ee- 8bb-
24cn	.
24B-J	.
=82	=82
8fJ	8a- 8ddn 8bb-
*clefF4	*
24FLL	4dn 4a- 4b-
24G	.
24FJJ	.
8BB-	.
16EE-LL 16E-	8r
16BBB-J 16BB-	.
=83||	=83||
*k[b-e-a-]	*k[b-e-a-]
*	*^
8GGJ 8G	4.B- 4.b-	2e-
16EE-LL 16E-	.	.
16BBB-J 16BB-	.	.
8GGJ 8G	.	.
16GG-XLL 16G-X	8B- 8b-	.
[16EE-J [16E-	.	.
=84	=84	=84
8qEE-/] 8qE-]	.	.
[8C-XJ [8G-X [8c-X	8.B-L 8.b-	4.e-
4C-] 4G-] 4c-]	.	.
.	16G-XJk 16g-X	.
.	8G-L 8g-	.
16EE-LL 16E-	8GnJ 8gn	8e-
16BBB-J 16BB-	.	.
=85	=85	=85
8GGnJ 8Gn	4.B- 4.b-	4.e-
16EE-LL 16E-	.	.
16BBB-J 16BB-	.	.
8GGJ 8G	.	.
16GG-XLL 16G-X	8B- 8b-	8e--
[16EE--J [16E--	.	.
=86	=86	=86
8qEE--/] 8qE--]	.	.
[8C-XJ [8G-X [8c-X	8.B-L 8.b-	4.e--
4C-] 4G-] 4c-]	.	.
.	16G-XJk 16g-X	.
.	8G-L 8g-	.
16DD-XLL 16D-X	8B-J 8b-	8g-
16BBB-J 16BB-	.	.
=87	=87	=87
8GG-XJ 8G-X	16.d-XLL 16.dd-X	8b-
.	32e-XJk 32ee-X	.
16DD-XLL 16D-X	8e-J 8b- 8dd- 8ee-	8rc
16BBB-J 16BB-	.	.
8BB-J 8B-	8fL 8b- 8dd- 8ff	4rc
16EE-LL 16E-	8g-XJ 8b- 8ee- 8gg-X	.
16BBB-J 16BB-	.	.
=88	=88	=88
[8G-XJ [8e- [8g-X	4ee-	8.b-L 8.bb-
8G-L] 8e-] 8g-]	.	.
.	.	16e-Jk 16ee-
8G-J 8B- 8g-	4b-	4e- 4ee-
16EE-LL 16E-	.	.
16BBB-J 16BB-	.	.
=89	=89	=89
[8G-XJ [8e- [8g-X	4ee-	8.cc-XL 8.ccc-X
8G-L] 8e-] 8g-]	.	.
.	.	16e-Jk 16ee-
8G-J 8c-X 8g-	4e- 4cc- 4ee-	4rc
16EE-LL 16E-	.	.
16AAAnJ 16AAn	.	.
=90	=90	=90
[8G-XJ [8e- [8g-X	4ee-	8.cc-XL 8.ccc-X
8G-L] 8e-] 8g-]	.	.
.	.	16e-Jk 16ee-
8G-J 8c-X 8g-	4e- 4cc- 4ee-	4rc
16EE-LL 16E-	.	.
16AAA-XJ 16AA-X	.	.
=91	=91	=91
8EE-J 8E-	16.c-XLL 16.cc-X	8e-L
.	32G-XJk 32g-X	.
16AA-LL 16A-	8G-J 8g-	8c-J
16EE-J 16E-	.	.
8AA-J 8A-	16.c-LL 16.cc-	8fL
.	32FJk 32f	.
16DD-XLL 16D-X	8FJ 8f	8c-J
16AAA-J 16AA-	.	.
=92	=92	=92
8DD-XJ 8D-X	16.B-LL 16.b-	8fL
.	32FJk 32f	.
16GG-XLL 16G-X	8FJ 8f	8B-J
16DD-J 16D-	.	.
8GG-J 8G-	16.B-LL 16.b-	8e-L
.	32E-Jk 32e-	.
16CC-XLL 16C-X	8E-J 8e-	8A-J
16GGG-XJ 16GG-	.	.
=93	=93	=93
8CC-XJ 8C-X	16.A-LL 16.a-	8e-L
.	32E-Jk 32e-	.
16FFLL 16F	8E-J 8e-	8A-J
16CC-J 16C-	.	.
8FF#XJ 8F#X	16.AnLL 16.an	8e-L
.	32E-Jk 32G 32e-	.
16FF#LL 16F#	8E-J 8e-	8AJ
16BBB-J 16BB-	.	.
=94	=94	=94
[8GGJ [8G	16.B-LL 16.b-	8e-
.	32B-Jk	.
16GGLL] 16G]	8B-J	8rc
16BBB-J 16BB-	.	.
8FFnJ 8Fn	16.B-LL 16.b-	8d
.	32B-Jk	.
16BBB-LL 16BB-	8B-J	8rc
16EEE-J 16EE-	.	.
=95	=95	=95
8GGJ 8G	4.B- 4.b-	2e-
16BBB-LL 16BB-	.	.
16EEE-J 16EE-	.	.
8GGJ 8G	.	.
16GG-XLL 16G-X	8B- 8b-	.
16EE-J 16E-	.	.
=96	=96	=96
[8C-XJ [8G-X [8c-X	8.B-L 8.b-	4.e-
4C-] 4G-] 4c-]	.	.
.	16G-XJk 16g-X	.
.	8G-L 8g-	.
16BBB-LL 16BB-	8GnJ 8gn	8e-
16EEE-J 16EE-	.	.
=97	=97	=97
8GGnJ 8Gn	4.B- 4.b-	4.e-
16BBB-LL 16BB-	.	.
16EEE-J 16EE-	.	.
8GGJ 8G	.	.
16GG-XLL 16G-X	8B- 8b-	8e-
16EE-J 16E-	.	.
=98	=98	=98
[8C-XJ [8G-X [8c-X	8.B-L 8.b-	2e-
4C-] 4G-] 4c-]	.	.
.	16G-XJk 16g-X	.
.	8G-L 8g-	.
16GG-XLL 16G-	8B-J 8b-	.
16EE-J 16E-	.	.
=99	=99	=99
[8C-XJ [8G-X [8c-X	8.B-L 8.b-	2e-
4C-] 4G-] 4c-]	.	.
.	16G-XJk 16g-X	.
.	8G-L 8g-	.
16BB-LL 16B-	8GnJ 8gn	.
[16EEE-JJ [16EE-	.	.
*	*v	*v
=100	=100
8qEEE-/] 8qEE-]	.
2G 2B- 2g	2e- 2b- 2ee-
==	==
*-	*-
!!!system-decoration: {(s1,s2)}
